X:1
T:O freedom
T:trad. arr. Wim Verkaik
T:10
T:O freedom
C:trad. arr. Wim Verkaik
%%score [ 1 2 3 4 ]
L:1/8
Q:1/4=120
M:2/2
K:E
V:1 treble nm="Soprano" snm="S"
V:2 treble nm="Alto" snm="A"
V:3 treble-8 nm="Tenor" snm="T"
V:4 bass nm="Bass" snm="B"
V:1
"^Tempo 40" B,4- B,C E2 | C2 E6 | F6 B2 | (3GFE- E4 x2 | GB- B6 | c2 B2 (3B2 B2 G2 | (3BGF- F6 | %7
w: O * * *|free- dom,|O *|free- * dom, *|O * *|free- dom af- ter a-|while, * * *|
 z4 c2 B2 | e e3 c2 B2 | c B3 =G2 FG | F<E E2 C E3 | E4 E2 E2 | G B3 B2 c2 | (3GFE- E2 F F3 | E8 |] %15
w: And be-|fore I'd be a|slave * I'd be *|bu- * ried in my|grave, And go|home * to my|Lord * * * and be|free.|
V:2
 B,4- B,C E2 | C2 E6 | D8 | B,4 B,4 | E4 F4 | A4 G4 | D4 [CE]4 | [DF]4 G2 G2 | E8- | E8- | E8- | %11
w: O * * *|free- dom,|O|free- dom,|O *|free- *|dom *|* And be-|fore|||
 E8 | G4 G2 A2 | E4 D2 D2 | B,8 |] %15
w: |home to my|Lord and be|free.|
V:3
 B,4- B,C E2 | C2 E6 | B8 | G4 G4 | B4 A4 | e8 | B4 ^A4 | A4 =d2 d2 | c8 | B4 c4 | =d8 | c8 | %12
w: O * * *|free- dom,|O|free- dom,|O *|free-|dom *|* And be-|fore||||
 B4 B2 A2 | G4 A2 A2 | G8 |] %15
w: home to my|Lord and be|free.|
V:4
 B,,4- B,,C, E,2 | C,2 E,6 | B,,8 | [E,,E,]4 [E,,E,]4 | E,4 D,4 | C,8 | B,,8- | B,,4 E,2 E,2 | %8
w: O * * *|free- dom,|O|free- dom,|O *|free-|dom|* And be-|
 A,,8- | A,,8- | A,,8- | A,,8 | E,4 E,2 E,2 | E,4 B,,2 B,,2 | [E,,E,]8 |] %15
w: fore||||home to my|Lord and be|free.|

